X: 2
T: An Traigh Mughdhorna
R: reel
M: 4/4
L: 1/8
K: Dmaj
(DE)|(F2ED) (E{FE}DEF)|(A4B2)(dA)|({d}B2AF) (E3D)|(B,4A,2) (DE)|(F2E)(D E{FE}DEF)|(A4B2) (dA)|({d}B2A)(F E3D)|D6||A2|(d2c)(A B3d)|c3(A F2FA)|({d}B2A)(F ABde)|d6 (DE)|(F2ED E)({FE}DEF)|(A4B2) (dA)|({d}B2AF) ({EF}E3D)|D6||


Tune 1314	Setting 1314

